src/img/svg/call.svg

<svg width="16" height="16" viewBox="0 0 16 16" fill="none" xmlns="http://www.w3.org/2000/svg">
<path d="M15.4283 12.0881L15.3683 11.9981C15.3242 11.8985 15.2741 11.8016 15.2183 11.7081C14.8855 11.2292 14.4846 10.8013 14.0283 10.4381C13.3874 9.87712 12.6826 9.39377 11.9283 8.9981L11.7683 8.9281H11.6583C11.4318 8.80309 11.1656 8.77075 10.9157 8.83789C10.6658 8.90502 10.4517 9.06639 10.3183 9.2881C10.1283 9.5281 9.95832 9.7981 9.78832 10.0581L9.51832 10.4681L9.15832 10.9581L9.07832 10.9981C9.07832 11.0481 9.00832 11.0781 8.92832 10.9981L8.65832 10.8581L8.26832 10.6581C7.4016 10.1523 6.6189 9.51466 5.94832 8.7681C5.35958 8.15606 4.86729 7.45809 4.48832 6.6981C4.33832 6.3881 4.33832 6.3881 4.61832 6.1981L5.15832 5.8381L5.72832 5.4681C5.95361 5.3284 6.1676 5.17125 6.36832 4.9981C6.51669 4.86597 6.61829 4.68936 6.65795 4.49469C6.6976 4.30001 6.67318 4.09773 6.58832 3.9181C6.58423 3.87486 6.58423 3.83133 6.58832 3.7881C6.58832 3.6981 6.51832 3.6081 6.46832 3.5181C6.11561 2.82467 5.67535 2.1794 5.15832 1.5981C4.8044 1.18675 4.42711 0.796106 4.02832 0.428096C3.82237 0.19714 3.53972 0.048613 3.23269 0.0100046C2.92566 -0.0286037 2.61504 0.0453208 2.35832 0.218096C1.66772 0.577065 1.06633 1.0862 0.59832 1.7081C0.279621 2.06889 0.0804964 2.51954 0.02832 2.9981C-0.00943999 3.39052 -0.00943999 3.78567 0.02832 4.1781C0.186206 5.15897 0.493083 6.10995 0.93832 6.9981C1.57143 8.3507 2.40777 9.59848 3.41832 10.6981C4.82529 12.3091 6.55183 13.6099 8.48832 14.5181C9.22866 14.8716 10.0119 15.1271 10.8183 15.2781L11.4383 15.3781H11.7083H12.6083C13.2098 15.1707 13.761 14.8392 14.2262 14.4051C14.6913 13.9709 15.06 13.4439 15.3083 12.8581C15.3395 12.7763 15.3662 12.6928 15.3883 12.6081C15.3924 12.5715 15.3924 12.5346 15.3883 12.4981V12.0481L15.4283 12.0881ZM3.09832 0.998096C3.17356 0.977212 3.25308 0.977212 3.32832 0.998096C3.76012 1.34866 4.14644 1.75178 4.47832 2.1981C4.9288 2.75245 5.31462 3.35635 5.62832 3.9981C5.75832 4.2681 5.76832 4.2781 5.53832 4.4481L5.02832 4.8181C4.85566 4.91874 4.68874 5.02891 4.52832 5.1481C4.2636 5.32161 4.01284 5.51554 3.77832 5.7281C3.60964 5.86323 3.49268 6.05237 3.44715 6.26366C3.40161 6.47495 3.43028 6.69547 3.52832 6.8881C4.05438 8.00674 4.77567 9.02263 5.65832 9.8881C6.40288 10.6519 7.2635 11.2931 8.20832 11.7881L8.57832 11.9581C8.75888 12.0582 8.96809 12.0939 9.17161 12.0593C9.37513 12.0248 9.56086 11.9221 9.69832 11.7681C9.89869 11.5548 10.0794 11.3239 10.2383 11.0781C10.365 10.8981 10.485 10.7181 10.5983 10.5381C10.7083 10.3681 10.8183 10.1881 10.9383 10.0281C11.1483 9.7181 11.1583 9.7181 11.4983 9.8881C12.5471 10.4235 13.4946 11.1375 14.2983 11.9981C14.3925 12.0795 14.4537 12.1926 14.4703 12.316C14.4869 12.4395 14.4577 12.5647 14.3883 12.6681C14.0349 13.3358 13.5147 13.9008 12.8783 14.3081C12.6931 14.4429 12.4671 14.5099 12.2383 14.4981C11.206 14.4667 10.1885 14.2428 9.23832 13.8381C7.2746 12.9838 5.52817 11.6987 4.12832 10.0781C3.19891 9.06222 2.427 7.91279 1.83832 6.6681C1.42708 5.82721 1.1536 4.92573 1.02832 3.9981C0.980632 3.6905 0.960552 3.37926 0.96832 3.0681C1.01687 2.72935 1.17081 2.41447 1.40832 2.1681C1.81634 1.67268 2.32847 1.27321 2.90832 0.998096C2.97096 0.984874 3.03568 0.984874 3.09832 0.998096Z" fill="black"/>
</svg>

<svg xmlns="http://www.w3.org/2000/svg" viewBox="0 0 15.4 15.42"><title>презентация oversize</title><g id="Слой_1" data-name="Слой 1"><path d="M15.4,12.09,15.34,12a2.7,2.7,0,0,0-.15-.29A6,6,0,0,0,14,10.44,10.82,10.82,0,0,0,11.9,9l-.16-.07-.11,0a1,1,0,0,0-1.34.36c-.19.24-.36.51-.53.77l-.27.41-.36.49L9.05,11c0,.05-.07.08-.15,0l-.27-.14-.39-.2A9.67,9.67,0,0,1,5.92,8.77,8.38,8.38,0,0,1,4.46,6.7c-.15-.31-.15-.31.13-.5l.54-.36.57-.37A5.07,5.07,0,0,0,6.34,5a.92.92,0,0,0,.22-1.08.69.69,0,0,1,0-.13c0-.09-.07-.18-.12-.27A9.09,9.09,0,0,0,5.13,1.6,14.15,14.15,0,0,0,4,.43,1.28,1.28,0,0,0,2.33.22,5.21,5.21,0,0,0,.57,1.71,2.33,2.33,0,0,0,0,3a6.16,6.16,0,0,0,0,1.18A9.75,9.75,0,0,0,.91,7,14.64,14.64,0,0,0,3.39,10.7a15.43,15.43,0,0,0,5.07,3.82,9.44,9.44,0,0,0,2.33.76l.62.1.27,0h.9a4.54,4.54,0,0,0,2.7-2.52,2.41,2.41,0,0,0,.08-.25.49.49,0,0,0,0-.11v-.45ZM3.07,1A.43.43,0,0,1,3.3,1a6.68,6.68,0,0,1,1.15,1.2A9.4,9.4,0,0,1,5.6,4c.13.27.14.28-.09.45L5,4.82a5.39,5.39,0,0,0-.5.33,6.08,6.08,0,0,0-.75.58A.94.94,0,0,0,3.5,6.89a10.4,10.4,0,0,0,2.13,3,10.12,10.12,0,0,0,2.55,1.9l.37.17a.91.91,0,0,0,1.12-.19,4.87,4.87,0,0,0,.54-.69q.19-.27.36-.54c.11-.17.22-.35.34-.51.21-.31.22-.31.56-.14A10.14,10.14,0,0,1,14.27,12a.51.51,0,0,1,.09.67,4.38,4.38,0,0,1-1.51,1.64,1,1,0,0,1-.64.19h0a8.3,8.3,0,0,1-3-.66A14.28,14.28,0,0,1,4.1,10.08,13.78,13.78,0,0,1,1.81,6.67,8.74,8.74,0,0,1,1,4a5.22,5.22,0,0,1-.06-.93,1.63,1.63,0,0,1,.44-.9A4.37,4.37,0,0,1,2.88,1,.46.46,0,0,1,3.07,1Z"/></g></svg>
